22x22/actions/action-unavailable.svg

<svg xmlns="http://www.w3.org/2000/svg" width="22" height="22" viewBox="0 0 22 22">
 <defs>
  <style id="current-color-scheme" type="text/css">
   .ColorScheme-Text { color:#323a41; } .ColorScheme-Highlight { color:#4285f4; } .ColorScheme-NeutralText { color:#ff9800; } .ColorScheme-PositiveText { color:#4caf50; } .ColorScheme-NegativeText { color:#f44336; }
  </style>
 </defs>
 <path style="fill:currentColor" class="ColorScheme-Text" d="M 8 1 C 4.137 1 1 4.137 1 8 C 1 11.863 4.137 15 8 15 C 11.863 15 15 11.863 15 8 C 15 4.137 11.863 1 8 1 z M 8 3 C 9.0194 3 9.959 3.28763 10.75 3.8125 L 3.8125 10.75 C 3.28763 9.95898 3 9.0194 3 8 C 3 5.2407 5.2408 3 8 3 z M 12.1875 5.25 C 12.71237 6.04102 13 6.9806 13 8 C 13 10.7592 10.7592 13 8 13 C 6.9806 13 6.041 12.71237 5.25 12.1875 L 12.1875 5.25 z" transform="translate(3 3)"/>
</svg>

<svg xmlns="http://www.w3.org/2000/svg" width="22" height="22"><defs><style id="current-color-scheme" type="text/css"></style></defs><path style="fill:currentColor;color:#323a41" d="M8 1C4.137 1 1 4.137 1 8s3.137 7 7 7 7-3.137 7-7-3.137-7-7-7zm0 2a4.93 4.93 0 0 1 2.75.813L3.812 10.75A4.93 4.93 0 0 1 3 8c0-2.76 2.24-5 5-5zm4.188 2.25A4.93 4.93 0 0 1 13 8c0 2.76-2.24 5-5 5a4.93 4.93 0 0 1-2.75-.813l6.938-6.937z" transform="translate(3 3)"/></svg>
